.local/share/icons/Gruvbox-Plus-Dark/panel/24/mintupdate-checking.svg

<svg xmlns="http://www.w3.org/2000/svg" width="24" height="24" version="1.1">
 <defs>
  <style id="current-color-scheme" type="text/css">
   .ColorScheme-Text { color:#ebdbb2; } .ColorScheme-Highlight { color:#458588; }
  </style>
 </defs>
 <g>
  <path style="fill:currentColor;fill-rule:evenodd" class="ColorScheme-Text" d="M 12,4 C 9.8519,5.9698 6.2346,7.7049 5,8 5,13.333 7.625,19.111 12,20 16.375,19.111 19,13.333 19,8 17.765,7.7049 14.148,5.9698 12,4 Z m 0.145,3.998 0,0.002 0.001,0 c 1.309,0.048 2.501,0.7374 3.204,1.8184 l 1.388,-0.4629 -1.57,3.1465 -3.147,-1.5743 1.278,-0.4257 C 12.961,10.208 12.536,10.015 12.07,9.998 11.328,9.971 10.6357,10.3531 10.2637,10.9961 l -1.7325,-1 C 9.2713,8.7141 10.6655,7.943 12.145,7.998 Z m -3.313,3.5 3.147,1.574 -1.2778,0.426 c 0.3378,0.294 0.7628,0.485 1.2288,0.502 0.742,0.027 1.434,-0.355 1.806,-0.998 l 1.733,1 C 14.729,15.284 13.334,16.055 11.855,16 10.5465,15.952 9.3553,15.263 8.6523,14.182 L 7.2637,14.645 8.832,11.498 Z"/>
 </g>
</svg>

<svg width="24" height="24" version="1.1" xmlns="http://www.w3.org/2000/svg">
  <defs>
    <style id="current-color-scheme" type="text/css">.ColorScheme-Text { color:#ebdbb2; } .ColorScheme-Highlight { color:#458588; } .ColorScheme-NeutralText { color:#fe8019; } .ColorScheme-PositiveText { color:#689d6a; } .ColorScheme-NegativeText { color:#fb4934; }</style>
  </defs>
  <path class="ColorScheme-Text" d="m12 4c-2.148 1.97-5.765 3.705-7 4 0 5.333 2.625 11.11 7 12 4.375-0.889 7-6.667 7-12-1.235-0.2951-4.852-2.03-7-4zm0.145 3.998v2e-3h1e-3c1.309 0.048 2.501 0.7374 3.204 1.818l1.388-0.4629-1.57 3.146-3.147-1.574 1.278-0.4257c-0.338-0.294-0.763-0.487-1.229-0.504-0.742-0.027-1.434 0.3551-1.806 0.9981l-1.732-1c0.7401-1.282 2.134-2.053 3.614-1.998zm-3.313 3.5 3.147 1.574-1.278 0.426c0.3378 0.294 0.7628 0.485 1.229 0.502 0.742 0.027 1.434-0.355 1.806-0.998l1.733 1c-0.74 1.282-2.135 2.053-3.614 1.998-1.308-0.048-2.5-0.737-3.203-1.818l-1.389 0.463 1.568-3.147z" fill="currentColor"/>
</svg>
